X: 32000
T: Peeler And The Goat, The
R: jig
M: 6/8
K: Bminor
|:c|d2 B cBA|B2 c d2 e|fgf e2 d|c2 A ABc|
dcB cBA|B2 c d2 e|fga f2 e|f2 B B2:|
|:g|a2 f e2 a|fga b2 c’|baf e2 a|c2 A A2 c|
dcB cBA|B2 c d2 e|fga f2 e|f2 B B2:|

